X: 1492
T: Nihâvent Sazsemâîsi
C: Vecdi Seyhun
O: Turkey
F: http://compmusic.upf.edu/node/140
N: nihavent--sazsemaisi--aksaksemai----vecdi_seyhun
N: makam= nihavent
N: form= sazsemaisi
N: usul= aksaksemai = 10/8
M: 10/8
L: 1/16
K: C _B _e  
Q: 1/4=132
%%MIDI tuningsystem comma53
G4 d2d3/2e/ dcB3/2A/ Bcd4e/d/e/f/  | \
w:  1. HANE  | 
d2zB (3cBA(3^FGA (3GFE(3DEF (3EDCD4z2  | 
w:   | 
GBdg ecA^F DGB/c/B/A/ BFc/d/c/B/ cGe2  | 
w:   | 
d4 (3efd(3dec (3cdB(3BcA (3^FGAG4z2  | \
w:   | 
dBdB BGec ecA^F .D2.G2 .B2.d2  | 
w:   | 
^FAcB Ac(3BAB G2B/c/d/e/ f/e/d/c/d4z2  | \
w:   | 
d/e/^f/g/a/b/a/g/ f/e/d/c/=B/c/d/e/ f/g/a/c'/b/a/g/f/ e/d/e/f/g/b/a/g/ f/e/d/^c/e/d/e/f/  | 
w:  TESLİM  | 
.d2z2 _1/4e2.f4g3ff_e ede2  | b2a2 g2f3de3Bd4z2  | \
w:   |   | 
{a}g2f2 e2d3Bc3AB4z2  | 
w:   | 
(3ABAG2 e2e4(3^FGA (3^CDED4z2  | B4 BAc2 BAB2 AGG4z2  | 
w:   |   | 
B4 B2B3Ad2 cBB4F2  | G4 GFA2 GFFE2DD4z2  | \
w:  2. HANE  |   | 
e4 d2g3ffe ede4g2  | 
w:   | 
f2e2 d2d3ccB {c}BAB4z2  | d2^c2 d2e2 ^fga2 gfef g2fe  | 
w:   |   | 
d2^fe f2e3/2d/ ^cde2 dcd4z2  | d/e/^f/g/a/b/a/g/ f/e/d/c/=B/c/d/e/ f/g/a/c'/b/a/g/f/ e/d/e/f/g/b/a/g/ f/e/d/^c/e/d/e/f/  | 
w:   |  TESLİM  | 
.d2z2 _1/4e2.f4g3ff_e ede2  | b2a2 g2f3de3Bd4z2  | \
w:   |   | 
{a}g2f2 e2d3Bc3AB4z2  | 
w:   | 
(3ABAG2 e2e4(3^FGA (3^CDED4z2  | B4 BAc2 BAB2 AGG4z2  | 
w:   |   | 
d4 e^fg3ab3/2a/ gfg4e/f/g/a/  | b4 bab3d'c'b bab4ab  | 
w:  3. HANE  |   | 
c'3d' e'3/2d'/e'f' e'd'd'3/2c'/ bc'd'6  | \
w:   | 
c'/b/agb ag^f/g/f/e/ dfe/f/e/d/ ^ced4z2  | 
w:   | 
dBAB dBG4ec A^Fec AFD2  | d4 e^fg3a(3bag (3fedd4z2  | 
w:   |   | 
d/e/^f/g/a/b/a/g/ f/e/d/c/=B/c/d/e/ f/g/a/c'/b/a/g/f/ e/d/e/f/g/b/a/g/ f/e/d/^c/e/d/e/f/  | 
w:  TESLİM  | 
.d2z2 _1/4e2.f4g3ff_e ede2  | b2a2 g2f3de3Bd4z2  | \
w:   |   | 
{a}g2f2 e2d3Bc3AB4z2  | 
w:   | 
(3ABAG2 e2e4(3^FGA (3^CDED4z2  | B4 BAc2 BAB2 AGG4z2  | 
w:   |   | 
z12  | d4g4d4  | d8B4  | G12  | G12  | ^f4a4f4  | \
w:  |  4. HANE  |   |   |   |   | 
e8c4  | A12  | A12  | B4d4B4  | G8F4  | D12  | 
w:   |   |   |   |   |   | 
D12  | c4e4c4  | A8^F4  | d12  | d12  | c2e2c2A2^f2a2  | \
w:   |   |   |   |   |   | 
^f2d2b2d'2b2g2  | ^f2a2f2d2c2e2  | 
w:   |   | 
c2A2^F2B2F2D2  | G12  | G12  | d4g4d4  | d8B4  | G12  | G12  | \
w:   |   |   |  4. HANE  |   |   |   | 
^f4a4f4  | e8c4  | A12  | 
w:   |   |   | 
A12  | B4d4B4  | G8F4  | D12  | D12  | c4e4c4  | \
w:   |   |   |   |   |   | 
A8^F4  | d12  | d12  | c2e2c2A2^f2a2  | 
w:   |   |   |   | 
^f2d2b2d'2b2g2  | ^f2a2f2d2c2e2  | c2A2^F2B2F2D2  | G12  | G12  | \
w:   |   |   |   |   | 
d8d4  | 
w:   | 
g4f2e2d4  | d4e2=e2f2^f2  | g8z4  | c8d4  | \
w:   |   |   |   | 
e4c2d2e4  | A4B2=B2c2^c2  | 
w:   |   | 
e8z4  | c2=B2c2_B2A2G2  | B2A2B2A2G2^F2  | \
w:   |   |   | 
G4^F2=F2=E2_E2  | D8z4  | 
w:   |   | 
A2B2d2B2d2B2  | c2e2g2e2g2e2  | ^f2g2b2a2g2=f2  | \
w:   |   |   | 
e2d2^c2d2f2e2  | 
w:   | 
d2^c2=c2=B2_B2A2  | ^F4G4^G4  | A12  | A12  | \
w:   |   |   |   | 
c2=B2c2_B2A2G2  | B2A2B2A2G2^F2  | 
w:   |   | 
G4B4d4  | G8z4  | z20  | d/e/^f/g/a/b/a/g/ f/e/d/c/=B/c/d/e/ f/g/a/c'/b/a/g/f/ e/d/e/f/g/b/a/g/ f/e/d/^c/e/d/e/f/  | 
w:   |   |  |  TESLİM  | 
.d2z2 _1/4e2.f4g3ff_e ede2  | b2a2 g2f3de3Bd4z2  | \
w:   |   | 
{a}g2f2 e2d3Bc3AB4z2  | 
w:   | 
(3ABAG2 e2e4(3^FGA (3^CDED4z2  | B4 BAc2 BAB2 AGG4z2  | 
w:   |   | 
|


